public/library/mantlescan-text-light.svg

<svg width="597" height="158" viewBox="0 0 597 158" fill="none" xmlns="http://www.w3.org/2000/svg">
<path d="M220.456 54.08H199.516V103.92H210.316V64.88H213.416L230.676 103.92H242.476L220.456 54.08Z" fill="black"/>
<path d="M408.953 103.92H419.753V54.08H408.953V103.92Z" fill="black"/>
<path d="M264.497 54.08L242.477 103.92H254.297L271.537 64.88H274.637V103.92H285.437V54.08H264.497Z" fill="black"/>
<path d="M333.733 54.08H313.973L291.953 103.92H303.753L310.933 87.68H336.773L343.953 103.92H355.753L333.733 54.08ZM315.713 76.88L321.013 64.88H326.693L331.993 76.88H315.713Z" fill="black"/>
<path d="M386.936 54.08H361.996V103.92H372.796V64.88H379.896L397.156 103.92H408.956L386.936 54.08Z" fill="black"/>
<path d="M425.758 54.08V64.88H450.958V103.92H461.758V64.88H486.958V54.08H425.758Z" fill="black"/>
<path d="M503.753 54.08H492.953V103.92H539.953V93.12H503.753V54.08Z" fill="black"/>
<path d="M596.957 64.88V54.08H545.957V103.92H596.957V93.12H556.757V83.68H591.617V72.88H556.757V64.88H596.957Z" fill="black"/>
<path d="M32.5203 55.4L8.56032 43.2C6.68032 46.88 5.10031 50.74 3.82031 54.68L29.4003 62.96C30.2403 60.36 31.2803 57.82 32.5203 55.4Z" fill="black"/>
<path d="M52.8605 33.9L66.1405 56.76C68.0805 55.64 70.1605 54.78 72.3005 54.2L65.4405 28.68C67.1805 28.22 68.9605 27.82 70.7605 27.54L66.5405 0.97998C62.4605 1.61998 58.4005 2.59998 54.4805 3.87998L62.6805 29.04C60.0605 29.9 57.5205 30.96 55.0805 32.2L43.0205 8.65998C39.3605 10.54 35.8005 12.72 32.4805 15.16L48.3405 36.88C49.7805 35.8 51.3005 34.82 52.8605 33.9Z" fill="black"/>
<path d="M124.079 52.84L101.219 66.12C102.339 68.06 103.219 70.14 103.799 72.28L129.319 65.4C129.799 67.14 130.179 68.92 130.459 70.7L157.019 66.48C156.379 62.4 155.399 58.34 154.099 54.42L128.959 62.64C128.099 60.02 127.039 57.48 125.799 55.04L149.339 42.96C147.459 39.3 145.279 35.74 142.839 32.42L121.139 48.28C122.179 49.76 123.159 51.28 124.079 52.84Z" fill="black"/>
<path d="M114.76 8.54C111.08 6.66 107.22 5.08 103.28 3.8L95.0195 29.38C97.5995 30.22 100.14 31.26 102.58 32.5L114.76 8.54Z" fill="black"/>
<path d="M105.197 33.44L91.7773 56.74C93.7173 57.86 95.5174 59.24 97.0974 60.82L134.737 23.04C131.817 20.12 128.637 17.42 125.317 15L109.797 36.42C108.317 35.34 106.797 34.34 105.197 33.44Z" fill="black"/>
<path d="M33.4395 52.76L56.7195 66.2C57.8395 64.26 59.2195 62.46 60.7995 60.86L23.0595 23.2C20.1395 26.12 17.4395 29.3 15.0195 32.62L36.4195 48.16C35.3595 49.64 34.3595 51.18 33.4395 52.76Z" fill="black"/>
<path d="M87.1419 27.08L91.2019 0.939996C87.1819 0.319996 83.0819 0 78.9819 0H78.9219V53.32H78.9819C81.2219 53.32 83.4619 53.6 85.6019 54.18L92.5019 28.2C90.7419 27.72 88.9619 27.36 87.1419 27.08Z" fill="black"/>
<path d="M54.18 72.38L28.2 65.46C27.74 67.22 27.36 69.02 27.08 70.82L0.939996 66.74C0.319996 70.76 0 74.9 0 79H53.32C53.32 76.74 53.62 74.52 54.18 72.38Z" fill="black"/>
<path d="M125.48 102.6L149.44 114.8C151.32 111.12 152.9 107.26 154.18 103.32L128.6 95.04C127.76 97.64 126.72 100.18 125.48 102.6Z" fill="black"/>
<path d="M105.119 124.08L91.8592 101.22C89.9192 102.34 87.8392 103.2 85.6992 103.78L92.5592 129.3C90.8192 129.76 89.0392 130.16 87.2392 130.44L91.4592 157C95.5392 156.36 99.5992 155.38 103.519 154.1L95.3192 128.94C97.9392 128.08 100.479 127.02 102.919 125.78L114.979 149.32C118.639 147.44 122.199 145.26 125.519 142.82L109.679 121.1C108.219 122.2 106.699 123.18 105.119 124.08Z" fill="black"/>
<path d="M33.9205 105.16L56.7805 91.88C55.6605 89.94 54.7805 87.86 54.2005 85.72L28.6805 92.6C28.2005 90.86 27.8205 89.08 27.5405 87.3L0.980469 91.52C1.62047 95.6 2.60047 99.66 3.90047 103.58L29.0405 95.36C29.9005 97.96 30.9605 100.52 32.2005 102.96L8.66047 115.04C10.5405 118.7 12.7205 122.26 15.1605 125.58L36.8605 109.72C35.8205 108.24 34.8405 106.72 33.9205 105.16Z" fill="black"/>
<path d="M43.2383 149.46C46.9183 151.34 50.7783 152.92 54.7183 154.2L62.9783 128.62C60.3983 127.78 57.8583 126.74 55.4183 125.5L43.2383 149.46Z" fill="black"/>
<path d="M52.7822 124.56L66.2022 101.26C64.2622 100.14 62.4622 98.76 60.8822 97.18L23.2422 134.96C26.1622 137.88 29.3422 140.58 32.6622 143L48.1822 121.58C49.6622 122.64 51.2022 123.64 52.7822 124.56Z" fill="black"/>
<path d="M124.54 105.24L101.26 91.8C100.14 93.74 98.7597 95.54 97.1797 97.14L134.94 134.8C137.86 131.88 140.56 128.7 142.98 125.38L121.58 109.84C122.64 108.34 123.64 106.82 124.54 105.24Z" fill="black"/>
<path d="M72.3805 103.82L65.4805 129.8C67.2405 130.26 69.0405 130.64 70.8405 130.92L66.7805 157.06C70.8005 157.68 74.9005 158 79.0005 158H79.0605V104.68H79.0005C76.7605 104.68 74.5205 104.38 72.3805 103.82Z" fill="black"/>
<path d="M104.68 79C104.68 81.26 104.4 83.48 103.82 85.62L129.8 92.54C130.26 90.78 130.64 88.98 130.92 87.18L157.06 91.26C157.68 87.24 158 83.1 158 79H104.68Z" fill="black"/>
</svg>

<svg xmlns="http://www.w3.org/2000/svg" width="597" height="158" fill="none" viewBox="0 0 597 158"><path fill="#000" d="M220.456 54.08h-20.94v49.84h10.8V64.88h3.1l17.26 39.04h11.8zM408.953 103.92h10.8V54.08h-10.8zM264.497 54.08l-22.02 49.84h11.82l17.24-39.04h3.1v39.04h10.8V54.08zM333.733 54.08h-19.76l-22.02 49.84h11.8l7.18-16.24h25.84l7.18 16.24h11.8zm-18.02 22.8 5.3-12h5.68l5.3 12z"/><path fill="#000" d="M386.936 54.08h-24.94v49.84h10.8V64.88h7.1l17.26 39.04h11.8zM425.758 54.08v10.8h25.2v39.04h10.8V64.88h25.2v-10.8zM503.753 54.08h-10.8v49.84h47v-10.8h-36.2zM596.957 64.88v-10.8h-51v49.84h51v-10.8h-40.2v-9.44h34.86v-10.8h-34.86v-8zM32.52 55.4 8.56 43.2a79 79 0 0 0-4.74 11.48l25.58 8.28c.84-2.6 1.88-5.14 3.12-7.56M52.86 33.9l13.28 22.86c1.94-1.12 4.02-1.98 6.16-2.56l-6.86-25.52c1.74-.46 3.52-.86 5.32-1.14L66.54.98c-4.08.64-8.14 1.62-12.06 2.9l8.2 25.16c-2.62.86-5.16 1.92-7.6 3.16L43.02 8.66a78 78 0 0 0-10.54 6.5l15.86 21.72c1.44-1.08 2.96-2.06 4.52-2.98M124.079 52.84l-22.86 13.28c1.12 1.94 2 4.02 2.58 6.16l25.52-6.88c.48 1.74.86 3.52 1.14 5.3l26.56-4.22c-.64-4.08-1.62-8.14-2.92-12.06l-25.14 8.22c-.86-2.62-1.92-5.16-3.16-7.6l23.54-12.08a78 78 0 0 0-6.5-10.54l-21.7 15.86q1.56 2.22 2.94 4.56M114.76 8.54a79 79 0 0 0-11.48-4.74l-8.26 25.58c2.58.84 5.12 1.88 7.56 3.12zM105.197 33.44l-13.42 23.3c1.94 1.12 3.74 2.5 5.32 4.08l37.64-37.78c-2.92-2.92-6.1-5.62-9.42-8.04l-15.52 21.42c-1.48-1.08-3-2.08-4.6-2.98M33.44 52.76 56.72 66.2c1.12-1.94 2.5-3.74 4.08-5.34L23.06 23.2c-2.92 2.92-5.62 6.1-8.04 9.42l21.4 15.54a58 58 0 0 0-2.98 4.6M87.142 27.08 91.202.94C87.182.32 83.082 0 78.982 0h-.06v53.32h.06c2.24 0 4.48.28 6.62.86l6.9-25.98a48 48 0 0 0-5.36-1.12M54.18 72.38 28.2 65.46c-.46 1.76-.84 3.56-1.12 5.36L.94 66.74C.32 70.76 0 74.9 0 79h53.32c0-2.26.3-4.48.86-6.62M125.48 102.6l23.96 12.2c1.88-3.68 3.46-7.54 4.74-11.48l-25.58-8.28c-.84 2.6-1.88 5.14-3.12 7.56M105.119 124.08l-13.26-22.86a26 26 0 0 1-6.16 2.56l6.86 25.52c-1.74.46-3.52.86-5.32 1.14L91.46 157c4.08-.64 8.14-1.62 12.06-2.9l-8.2-25.16c2.62-.86 5.16-1.92 7.6-3.16l12.06 23.54c3.66-1.88 7.22-4.06 10.54-6.5l-15.84-21.72c-1.46 1.1-2.98 2.08-4.56 2.98M33.92 105.16l22.86-13.28c-1.12-1.94-2-4.02-2.58-6.16L28.68 92.6c-.48-1.74-.86-3.52-1.14-5.3L.98 91.52c.64 4.08 1.62 8.14 2.92 12.06l25.14-8.22c.86 2.6 1.92 5.16 3.16 7.6L8.66 115.04c1.88 3.66 4.06 7.22 6.5 10.54l21.7-15.86q-1.56-2.22-2.94-4.56M43.238 149.46c3.68 1.88 7.54 3.46 11.48 4.74l8.26-25.58c-2.58-.84-5.12-1.88-7.56-3.12zM52.782 124.56l13.42-23.3c-1.94-1.12-3.74-2.5-5.32-4.08l-37.64 37.78c2.92 2.92 6.1 5.62 9.42 8.04l15.52-21.42c1.48 1.06 3.02 2.06 4.6 2.98M124.54 105.24 101.26 91.8a26.4 26.4 0 0 1-4.08 5.34l37.76 37.66c2.92-2.92 5.62-6.1 8.04-9.42l-21.4-15.54c1.06-1.5 2.06-3.02 2.96-4.6M72.38 103.82l-6.9 25.98c1.76.46 3.56.84 5.36 1.12l-4.06 26.14c4.02.62 8.12.94 12.22.94h.06v-53.32H79c-2.24 0-4.48-.3-6.62-.86M104.68 79c0 2.26-.28 4.48-.86 6.62l25.98 6.92c.46-1.76.84-3.56 1.12-5.36l26.14 4.08c.62-4.02.94-8.16.94-12.26z"/></svg>
